X:1
T:Title
L:1/8
Q:1/4=100
M:4/4
K:Ab
V:1 treble nm="Church Organ, Staff"
V:1
 A2 FG A2 FG | A2 d2 B2 c2- | cc f2 e2 d2 | c2 Bc AB G2 | A2 FG A2 FG | A2 d2 B2 c2- | %6
w: By~Louis~J.~Garrett * * * * *||||||
 c2 B2 B2 c2 | c2 =d4 e2 | z2 c4 c2- | c2 cB AB c2- | c2 c2 f2 e2 | c2 c4 B2- | B2 c2 c2 c2 | %13
w: |||||||
 c2 cB AB c2- | c2 c2 f2 e2 | c2 B4 A2- | A2 a4 f2- | f2 ed cB A2- | A2 AB c2 AB | c2 e6- | %20
w: |||||||
 e2 f2- f/ z/ f e2 | c2 e2 d2 c2 | B2 e4 e2- | e2 A6 |] %24
w: ||||

